X:35
T:Apollo's Hunt
C:P.J. Vanpelt (18th century)
M:6/8
R:Jig
S:Colin Hume's website,  colinhume.com  - chords can also be printed below the stave.
Q:3/8=116
L:1/8
K:D
P:A
|: "D"aba fdf | "D"agf "A"e2A | "D"d2A "A"e2A | "D"fgf "A"e3 |\
"D"aba fdf | "D"agf "A"e2A | "D"d2A "A"e2A | "D"fgf edd :|
P:B
|: "D"FGF "A"E2G | "D"F2E F2D | "D"FGF "A"E2G | "D"F2E D3 |\
"D"FGF "A"E2G | "D"F2E F2D | "D"FGF "A"E2G | "D"F2E D3 :|
P:C
|: "D"ABA dfd | "/"ABA FAF | "Em"EFG "D"FED | "A"CDE A,3 |\
"D"ABA dfd | "/"ABA FAF | "Em"EFG "D"FED | "A"EDC "D"D3 :|

